X: 41895
T: W.T.'s 97th
R: reel
M: 4/4
K: Gmajor
E|D2GD B,G,G,D|EG,DG, CB,A,G,|DGGF G2AB|c2AG FDCA,|
D2GD B,G,G,D|EG,DG, CB,A,G,|D/E/F GF ECCE|ADFA BGG:|
|:B|~A2FA DcBA|GABG cBAG|~A2FA DcBA|GgdB edcB|
~A2FA DcBA|GABG cBAG|E2DC B,CA,D|~A2FA BGG:|

